src/assets/img/icons/duotone-icons/Clothes/Dress.svg

<?xml version="1.0" encoding="UTF-8"?>
<svg width="24px" height="24px" viewBox="0 0 24 24" version="1.1" xmlns="http://www.w3.org/2000/svg" xmlns:xlink="http://www.w3.org/1999/xlink">
    <!-- Generator: Sketch 52.2 (67145) - http://www.bohemiancoding.com/sketch -->
    <title>Stockholm-icons / Clothes / Dress</title>
    <desc>Created with Sketch.</desc>
    <g id="Stockholm-icons-/-Clothes-/-Dress" stroke="none" stroke-width="1" fill="none" fill-rule="evenodd">
        <polygon id="bound" points="0 0 24 0 24 24 0 24"></polygon>
        <path d="M8.04050792,3 C8.31778201,4.50768629 9.98487319,5.66666667 12,5.66666667 C14.0151268,5.66666667 15.682218,4.50768629 15.9594921,3 L18.381966,3 C18.9342508,3 19.381966,3.44771525 19.381966,4 C19.381966,4.1552451 19.3458209,4.30835816 19.2763932,4.4472136 L16.2763932,10.4472136 C16.1070012,10.7859976 15.7607381,11 15.381966,11 L8.61803399,11 C8.23926193,11 7.89299881,10.7859976 7.7236068,10.4472136 L4.7236068,4.4472136 C4.47661755,3.9532351 4.6768419,3.35256206 5.17082039,3.10557281 C5.30967583,3.03614509 5.46278889,3 5.61803399,3 L8.04050792,3 Z" id="Combined-Shape" fill="#335EEA" opacity="0.3"></path>
        <path d="M9.35406592,12 L14.6459341,12 C15.4637433,12 16.1991608,12.4979019 16.5028875,13.2572186 L19.4514437,20.6286093 C19.6565571,21.1413928 19.4071412,21.7233633 18.8943577,21.9284767 C18.7762374,21.9757248 18.6501865,22 18.522967,22 L5.47703296,22 C4.92474821,22 4.47703296,21.5522847 4.47703296,21 C4.47703296,20.8727806 4.50130816,20.7467296 4.54855627,20.6286093 L7.49711254,13.2572186 C7.80083924,12.4979019 8.53625675,12 9.35406592,12 Z" id="Rectangle" fill="#335EEA"></path>
    </g>
</svg>

<svg width="24" height="24" viewBox="0 0 24 24" xmlns="http://www.w3.org/2000/svg"><g fill="none" fill-rule="evenodd"><path d="M0 0h24v24H0z"/><path d="M8.04 3C8.319 4.508 9.986 5.667 12 5.667c2.015 0 3.682-1.16 3.96-2.667h2.422a1 1 0 01.894 1.447l-3 6a1 1 0 01-.894.553H8.618a1 1 0 01-.894-.553l-3-6A1 1 0 015.618 3h2.423z" fill="#335EEA" opacity=".3"/><path d="M9.354 12h5.292a2 2 0 011.857 1.257l2.948 7.372A1 1 0 0118.523 22H5.477a1 1 0 01-.928-1.371l2.948-7.372A2 2 0 019.354 12z" fill="#335EEA"/></g></svg>
